images/get-involved/browser-left.svg

<?xml version="1.0" encoding="UTF-8" standalone="no"?>
<svg
   xmlns:dc="http://purl.org/dc/elements/1.1/"
   xmlns:cc="http://creativecommons.org/ns#"
   xmlns:rdf="http://www.w3.org/1999/02/22-rdf-syntax-ns#"
   xmlns:svg="http://www.w3.org/2000/svg"
   xmlns="http://www.w3.org/2000/svg"
   preserveAspectRatio="none"
   version="1.1"
   id="svg2"
   height="16.035477"
   width="77.906326">
  <defs
     id="defs32" />
  <path
     id="path12"
     d="M 34.1875 0 C 33.9425 -0.0099999964 33.71225 0.10120312 33.53125 0.28320312 L 26.40625 7.2519531 C 26.25925 7.3979531 26.168953 7.5679531 26.126953 7.7519531 C 26.103953 7.8449531 26.089703 7.9392031 26.095703 8.0332031 C 26.093703 8.0632031 26.095703 8.0959531 26.095703 8.1269531 C 26.105703 8.1819531 26.107 8.2312031 26.125 8.2832031 C 26.167 8.4732031 26.25425 8.6624531 26.40625 8.8144531 L 33.53125 15.783203 C 33.89425 16.145203 34.484953 16.112703 34.876953 15.720703 L 36.283203 14.314453 C 36.676203 13.922453 36.708656 13.301453 36.347656 12.939453 L 33.439453 10.033203 L 40 10.033203 C 40.554 10.033203 41 9.5872031 41 9.0332031 L 41 7.0332031 C 41 6.4792031 40.554 6.0332031 40 6.0332031 L 33.40625 6.0332031 L 36.34375 3.09375 C 36.70375 2.73375 36.67425 2.1429531 36.28125 1.7519531 L 34.876953 0.31445312 C 34.680953 0.11845312 34.4335 0.011953125 34.1875 0.001953125 L 34.1875 0 z M 69.8125 0 L 69.8125 0.001953125 C 69.5665 0.011953125 69.319047 0.11845312 69.123047 0.31445312 L 67.71875 1.7519531 C 67.32575 2.1429531 67.29625 2.73375 67.65625 3.09375 L 70.59375 6.0332031 L 64 6.0332031 C 63.446 6.0332031 63 6.4792031 63 7.0332031 L 63 9.0332031 C 63 9.5872031 63.446 10.033203 64 10.033203 L 70.558594 10.033203 L 67.652344 12.939453 C 67.291344 13.301453 67.323797 13.922453 67.716797 14.314453 L 69.123047 15.720703 C 69.515047 16.112703 70.10575 16.145203 70.46875 15.783203 L 77.59375 8.8144531 C 77.74575 8.6624531 77.833 8.4732031 77.875 8.2832031 C 77.893 8.2312031 77.894297 8.1819531 77.904297 8.1269531 C 77.904297 8.0959531 77.906297 8.0632031 77.904297 8.0332031 C 77.910297 7.9392031 77.896047 7.8449531 77.873047 7.7519531 C 77.831047 7.5679531 77.74075 7.3979531 77.59375 7.2519531 L 70.46875 0.28320312 C 70.28775 0.10120312 70.0575 -0.0099999964 69.8125 0 z M 7.1191406 4.0332031 C 6.8932656 4.0332031 6.6661406 4.1190156 6.4941406 4.2910156 L 4 6.7851562 L 1.5058594 4.2910156 C 1.3338594 4.1190156 1.1068594 4.0410156 0.88085938 4.0410156 C 0.65685938 4.0410156 0.4298125 4.1190156 0.2578125 4.2910156 C -0.0861875 4.6350156 -0.0861875 5.1941094 0.2578125 5.5371094 L 2.7539062 8.0332031 L 0.2578125 10.527344 C -0.0861875 10.871344 -0.0861875 11.432391 0.2578125 11.775391 C 0.6008125 12.119391 1.1618594 12.119391 1.5058594 11.775391 L 4 9.28125 L 6.4941406 11.775391 C 6.8381406 12.119391 7.3991875 12.119391 7.7421875 11.775391 C 8.0861875 11.432391 8.0861875 10.871344 7.7421875 10.527344 L 5.2460938 8.0332031 L 7.7421875 5.5371094 C 8.0861875 5.1941094 8.0861875 4.6350156 7.7421875 4.2910156 C 7.5706875 4.1190156 7.3450156 4.0332031 7.1191406 4.0332031 z "
     style="color:#bebebe;overflow:visible;fill:#bebebe;fill-opacity:1;enable-background:accumulate;opacity:1;clip-rule:nonzero;display:inline;visibility:visible;isolation:auto;mix-blend-mode:normal;color-interpolation:sRGB;color-interpolation-filters:linearRGB;solid-color:#000000;solid-opacity:1;fill-rule:nonzero;stroke:none;stroke-width:1;stroke-linecap:butt;stroke-linejoin:miter;stroke-miterlimit:4;stroke-dasharray:none;stroke-dashoffset:0;stroke-opacity:1;marker:none;filter-blend-mode:normal;filter-gaussianBlur-deviation:0;color-rendering:auto;image-rendering:auto;shape-rendering:auto;text-rendering:auto" />
</svg>

<svg xmlns="http://www.w3.org/2000/svg" preserveAspectRatio="none" height="16.035" width="77.906"><path d="M34.188 0c-.245-.01-.476.101-.657.283l-7.125 6.969a1.012 1.012 0 0 0-.279.5.928.928 0 0 0-.031.281c-.002.03 0 .063 0 .094.01.055.011.104.029.156.042.19.13.38.281.531l7.125 6.97c.363.361.954.329 1.346-.063l1.406-1.407c.393-.392.426-1.013.065-1.375l-2.909-2.906H40c.554 0 1-.446 1-1v-2c0-.554-.446-1-1-1h-6.594l2.938-2.94c.36-.36.33-.95-.063-1.341L34.877.314a1.04 1.04 0 0 0-.69-.312V0zm35.624 0v.002a1.04 1.04 0 0 0-.689.312l-1.404 1.438c-.393.391-.423.982-.063 1.342l2.938 2.94H64c-.554 0-1 .445-1 1v2c0 .553.446 1 1 1h6.559l-2.907 2.905c-.36.362-.328.983.065 1.375l1.406 1.407c.392.392.983.424 1.346.062l7.125-6.969c.152-.152.239-.34.281-.53.018-.053.02-.102.03-.157 0-.031.001-.064 0-.094a.928.928 0 0 0-.032-.281 1.012 1.012 0 0 0-.28-.5L70.47.283c-.181-.182-.411-.293-.656-.283zM7.12 4.033a.882.882 0 0 0-.625.258L4 6.785 1.506 4.291a.874.874 0 0 0-.625-.25.873.873 0 0 0-.623.25.881.881 0 0 0 0 1.246l2.496 2.496-2.496 2.494a.884.884 0 0 0 1.248 1.248L4 9.281l2.494 2.494a.884.884 0 0 0 1.248-1.248L5.246 8.033l2.496-2.496a.881.881 0 0 0-.623-1.504z" style="isolation:auto;mix-blend-mode:normal;marker:none;filter-blend-mode:normal;filter-gaussianBlur-deviation:0" color="#bebebe" overflow="visible" fill="#bebebe"/></svg>
